public/images/eldritch.svg

<?xml version="1.0" encoding="UTF-8" standalone="no"?>
<!-- Created with Inkscape (http://www.inkscape.org/) -->

<svg
   width="512"
   height="512"
   viewBox="0 0 135.46666 135.46666"
   version="1.1"
   id="svg1304"
   inkscape:version="1.1 (c68e22c387, 2021-05-23)"
   sodipodi:docname="eldritch.svg"
   xmlns:inkscape="http://www.inkscape.org/namespaces/inkscape"
   xmlns:sodipodi="http://sodipodi.sourceforge.net/DTD/sodipodi-0.dtd"
   xmlns="http://www.w3.org/2000/svg"
   xmlns:svg="http://www.w3.org/2000/svg">
  <sodipodi:namedview
     id="namedview1306"
     pagecolor="#505050"
     bordercolor="#eeeeee"
     borderopacity="1"
     inkscape:pageshadow="0"
     inkscape:pageopacity="0"
     inkscape:pagecheckerboard="0"
     inkscape:document-units="px"
     showgrid="false"
     width="512mm"
     units="px"
     inkscape:zoom="1"
     inkscape:cx="155.5"
     inkscape:cy="184.5"
     inkscape:window-width="1920"
     inkscape:window-height="1017"
     inkscape:window-x="1912"
     inkscape:window-y="-8"
     inkscape:window-maximized="1"
     inkscape:current-layer="layer1" />
  <defs
     id="defs1301">
    <filter
       style="color-interpolation-filters:sRGB;"
       inkscape:label="Colorize"
       id="filter139057"
       x="0"
       y="0"
       width="1"
       height="1">
      <feColorMatrix
         values="0.21 0.72 0.072 0 0 0.21 0.72 0.072 0 0 0.21 0.72 0.072 0 0 0 0 0 1 0 "
         id="feColorMatrix139055"
         result="fbSourceGraphic" />
      <feColorMatrix
         result="fbSourceGraphicAlpha"
         in="fbSourceGraphic"
         values="0 0 0 -1 0 0 0 0 -1 0 0 0 0 -1 0 0 0 0 1 0"
         id="feColorMatrix139265" />
      <feComposite
         in2="fbSourceGraphic"
         id="feComposite139267"
         operator="arithmetic"
         k1="0"
         k2="1"
         result="composite1"
         in="fbSourceGraphic" />
      <feColorMatrix
         id="feColorMatrix139269"
         in="composite1"
         values="1"
         type="saturate"
         result="colormatrix1" />
      <feFlood
         id="feFlood139271"
         flood-opacity="1"
         flood-color="rgb(0,0,0)"
         result="flood1" />
      <feBlend
         in2="colormatrix1"
         id="feBlend139273"
         in="flood1"
         mode="multiply"
         result="blend1" />
      <feBlend
         in2="blend1"
         id="feBlend139275"
         mode="screen"
         result="blend2" />
      <feColorMatrix
         id="feColorMatrix139277"
         in="blend2"
         values="1"
         type="saturate"
         result="colormatrix2" />
      <feComposite
         in2="fbSourceGraphic"
         id="feComposite139279"
         in="colormatrix2"
         operator="in"
         k2="1"
         result="composite2" />
    </filter>
  </defs>
  <g
     inkscape:label="Layer 1"
     inkscape:groupmode="layer"
     id="layer1">
    <path
       id="path152465"
       style="opacity:1;fill:#000000;fill-opacity:1;stroke:none;stroke-width:1.23131"
       d="M 67.374564,2.3812498 65.525345,18.832879 a 48.983534,48.983534 0 0 1 2.207985,-0.08308 48.983534,48.983534 0 0 1 1.667947,0.03273 z M 69.401277,18.782523 73.656116,53.210227 100.77254,31.574741 A 48.983534,48.983534 0 0 0 69.401277,18.782523 Z m 31.371263,12.792218 a 48.983534,48.983534 0 0 1 2.75432,2.722846 l 10.16252,-13.028879 z m 2.75432,2.722846 -21.335885,27.35434 34.473025,3.875932 A 48.983534,48.983534 0 0 0 103.52686,34.297587 Z M 116.664,65.527859 a 48.983534,48.983534 0 0 1 0.0529,2.205471 48.983534,48.983534 0 0 1 -0.063,1.671724 l 16.43149,-2.03049 z m -0.0101,3.877195 -34.397487,4.251062 21.630457,27.110134 A 48.983534,48.983534 0 0 0 116.6539,69.405054 Z m -12.76703,31.361196 a 48.983534,48.983534 0 0 1 -2.72033,2.75935 l 13.03139,10.16378 z M 101.16656,103.5256 73.814733,82.190975 69.941314,116.63378 A 48.983534,48.983534 0 0 0 101.16656,103.5256 Z m -31.225246,13.10818 a 48.983534,48.983534 0 0 1 -2.207984,0.0831 48.983534,48.983534 0 0 1 -1.671724,-0.063 l 2.03049,16.43149 z m -3.879708,0.0201 -4.251062,-34.397487 -27.110131,21.630457 a 48.983534,48.983534 0 0 0 31.361193,12.76703 z M 34.700413,103.88689 A 48.983534,48.983534 0 0 1 31.94106,101.16656 L 21.77728,114.19795 Z M 31.94106,101.16656 53.275685,73.814733 18.832879,69.941314 A 48.983534,48.983534 0 0 0 31.94106,101.16656 Z M 18.832879,69.941314 a 48.983534,48.983534 0 0 1 -0.08308,-2.207984 48.983534,48.983534 0 0 1 0.06294,-1.671724 L 2.3812498,68.092096 Z M 18.812738,66.061606 53.210227,61.810544 31.579775,34.700413 A 48.983534,48.983534 0 0 0 18.812738,66.061606 Z M 31.579775,34.700413 A 48.983534,48.983534 0 0 1 34.300101,31.94106 L 21.268708,21.77728 Z M 34.300101,31.94106 61.651927,53.275685 65.525345,18.832879 A 48.983534,48.983534 0 0 0 34.300101,31.94106 Z" />
  </g>
</svg>

<svg width="512" height="512" viewBox="0 0 135.467 135.467" xmlns="http://www.w3.org/2000/svg"><path style="opacity:1;fill:#000;fill-opacity:1;stroke:none;stroke-width:1.23131" d="m67.375 2.381-1.85 16.452a48.984 48.984 0 0 1 2.208-.083 48.984 48.984 0 0 1 1.668.033zM69.4 18.783l4.255 34.427 27.117-21.635A48.984 48.984 0 0 0 69.4 18.783zm31.372 12.792a48.984 48.984 0 0 1 2.754 2.723l10.162-13.03zm2.754 2.723L82.19 61.652l34.473 3.876a48.984 48.984 0 0 0-13.137-31.23zm13.137 31.23a48.984 48.984 0 0 1 .053 2.205 48.984 48.984 0 0 1-.063 1.672l16.431-2.03zm-.01 3.877-34.398 4.251 21.63 27.11a48.984 48.984 0 0 0 12.768-31.36zm-12.767 31.361a48.984 48.984 0 0 1-2.72 2.76l13.03 10.163zm-2.72 2.76L73.815 82.19l-3.874 34.443a48.984 48.984 0 0 0 31.226-13.108zM69.94 116.634a48.984 48.984 0 0 1-2.208.083 48.984 48.984 0 0 1-1.671-.063l2.03 16.431zm-3.88.02-4.25-34.398-27.11 21.63a48.984 48.984 0 0 0 31.36 12.768zm-31.36-12.767a48.984 48.984 0 0 1-2.76-2.72l-10.164 13.031zm-2.76-2.72 21.335-27.352-34.443-3.874a48.984 48.984 0 0 0 13.108 31.226zM18.833 69.94a48.984 48.984 0 0 1-.083-2.208 48.984 48.984 0 0 1 .063-1.671L2.38 68.092zm-.02-3.88 34.397-4.25L31.58 34.7a48.984 48.984 0 0 0-12.767 31.36zm12.767-31.36a48.984 48.984 0 0 1 2.72-2.76L21.27 21.777zm2.72-2.76 27.352 21.335 3.873-34.443A48.984 48.984 0 0 0 34.3 31.94z"/></svg>
